!!!COM: Palestrina, Giovanni Perluigi da
!!!OPR: Ecce sacerdos magnus
!!!OTL: Kyrie
**kern	**kern	**kern	**kern
*Ibass	*Itenor	*Icalto	*Icant
!Bassus	!Tenor	!Altus	!Cantus
*clefF4	*clefGv2	*clefG2	*clefG2
*k[]	*k[]	*k[]	*k[]
*G:mix	*G:mix	*G:mix	*G:mix
*M4/2	*M4/2	*M4/2	*M4/2
=1	=1	=1	=1
0r	1r	0r	0dd
.	[1d	.	.
=2	=2	=2	=2
0r	2d]	0r	0dd
.	2e	.	.
.	2f	.	.
.	2d	.	.
=3	=3	=3	=3
0r	2.g	1r	0b
.	4f#	.	.
.	4g	[1G	.
.	4a	.	.
.	[2g	.	.
=4	=4	=4	=4
0r	2g]	2G]	0dd
.	4f	2A	.
.	4e	.	.
.	2d	2B	.
.	[2g	2G	.
=5	=5	=5	=5
0r	4g]	2.c	0ee
.	4f	.	.
.	4e	.	.
.	4d	4d	.
.	1c	4e	.
.	.	4f	.
.	.	[2g	.
=6	=6	=6	=6
1.D	1.d	2g]	0dd
.	.	4f	.
.	.	4e	.
.	.	2f	.
2E	4c	2g	.
.	4B	.	.
=7	=7	=7	=7
2F	1A	1a	0dd
2D	.	.	.
2.G	2.B	[1g	.
4A	4c	.	.
=8	=8	=8	=8
4B	1d	2g]	0r
4c	.	.	.
1d	.	2f	.
.	1A	1e	.
2c#	.	.	.
=9	=9	=9	=9
1.d	2.d	2.f	0dd
.	4e	4g	.
.	4f	2a	.
.	4d	.	.
2G	[2g	2b-	.
=10	=10	=10	=10
1d	2g]	1a	0dd
.	2f#	.	.
[1G	1g	2g	.
.	.	2d	.
=11	=11	=11	=11
1G]	2r	2d	0b
.	2G	2d	.
1r	2G	1g	.
.	2G	.	.
=12	=12	=12	=12
0r	2A	2e	0cc
.	4F	1f	.
.	4G	.	.
.	4A	.	.
.	4B	.	.
.	[2c	2e	.
=13	=13	=13	=13
2r	2c]	1d	0dd
2G	4B	.	.
.	4A	.	.
2G	1B	1g	.
2G	.	.	.
=14	=14	=14	=14
2A	1c	2e	0cc
4F	.	1f	.
4G	.	.	.
4A	1r	.	.
4B	.	.	.
[2c	.	4e	.
.	.	4d	.
=15	=15	=15	=15
2c]	2r	2e	0g
4B	2d	2d	.
4A	.	.	.
1B	2d	1G	.
.	2d	.	.
=16	=16	=16	=16
2c	2e	0r	0g
2.e	4c	.	.
.	4d	.	.
.	4e	.	.
4d	4f	.	.
2B	2g	.	.
=17	=17	=17	=17
0c	2.e	2r	0r
.	.	2g	.
.	4d	.	.
.	4e	2g	.
.	4f	.	.
.	[2g	2g	.
=18	=18	=18	=18
2.A	2g]	1a	0cc
.	1f	.	.
4B	.	.	.
1c	.	1g	.
.	2e	.	.
=19	=19	=19	=19
2.F	1f	2.a	0cc
4G	.	4g	.
2.A	2.c	2e	.
.	.	2f	.
4G	4d	.	.
=20	=20	=20	=20
2E	2e	2g	0cc
2.F	2A	2.a	.
.	1r	.	.
4E	.	4g	.
2C	.	[2g	.
=21	=21	=21	=21
0D	2r	2g]	0a
.	2d	4f	.
.	.	4e	.
.	2d	2.f	.
.	2d	.	.
.	.	8e	.
.	.	8d	.
=22	=22	=22	=22
2r	1e	1c	0cc
2A	.	.	.
2A	4c	1r	.
.	4d	.	.
2A	4e	.	.
.	4f	.	.
=23	=23	=23	=23
2B	2.g	0r	0b
2.G	.	.	.
.	8f	.	.
.	8e	.	.
.	2d	.	.
4A	.	.	.
4B	[2g	.	.
4c	.	.	.
=24	=24	=24	=24
1d	2g]	2r	0a
.	4f	2d	.
.	4e	.	.
1r	1f#	2d	.
.	.	2d	.
=25	=25	=25	=25
2r	2.g	2e	0g
2c	.	4c	.
.	4f	4d	.
2c	2e	4e	.
.	.	4f	.
2B-	[2d	2g	.
=26	=26	=26	=26
1A	2d]	2f	0a
.	2c#	2e	.
4D	1d	[1f	.
4E	.	.	.
4F	.	.	.
4G	.	.	.
=27	=27	=27	=27
1A	2r	2f]	0cc
.	2A	4e	.
.	.	4d	.
1r	2A	1e	.
.	2A	.	.
=28	=28	=28	=28
0r	2B	1d	0b
.	2.G	.	.
.	.	[1g	.
.	4A	.	.
.	4B	.	.
.	4c	.	.
=29	=29	=29	=29
2r	2.d	2g]	0a
2D	.	4f	.
.	8c	4e	.
.	8B	.	.
2D	2A	1f#	.
2D	2d	.	.
=30	=30	=30	=30
2E	2B	2.g	[0g
2.C	1c	.	.
.	.	4f	.
.	.	1e	.
4D	.	.	.
4E	4B	.	.
4F	4A	.	.
=31	=31	=31	=31
0G	0B	0d	0g]
=32	=32	=32	=32
0G	0B	0g	0dd
=33	=33	=33	=33
1C	1c	0g	1ee
1G	1B	.	2dd
.	.	.	[2ee
=34	=34	=34	=34
1.A	2.c	0e	4ee]
.	.	.	4dd
.	.	.	1cc
.	4d	.	.
.	4e	.	.
.	4f	.	.
4G	[2g	.	4b
4F	.	.	4a
=35	=35	=35	=35
2.E	4g]	0g	2b
.	4f	.	.
.	2e	.	4g
4F	.	.	4a
1G	1d	.	4b
.	.	.	4cc
.	.	.	[2dd
=36	=36	=36	=36
0F	2.f	0a	2dd]
.	.	.	1cc
.	4e	.	.
.	2c	.	.
.	2d	.	4b
.	.	.	4a
=37	=37	=37	=37
2.E	0e	0g	4cc
.	.	.	4b
.	.	.	2.ee
4D	.	.	.
1C	.	.	.
.	.	.	4dd
.	.	.	[2cc
=38	=38	=38	=38
1G	1d	[0g	2cc]
.	.	.	4b
.	.	.	4a
2r	1G	.	[1b
2d	.	.	.
=39	=39	=39	=39
2.e	1r	1g]	2b]
.	.	.	2cc
8d	.	.	.
8c	.	.	.
2B	2r	1r	1dd
2G	2d	.	.
=40	=40	=40	=40
2.c	2.e	0g	1r
8B	8d	.	.
8A	8c	.	.
1G	2B	.	2r
.	2G	.	2dd
=41	=41	=41	=41
1r	2.c	0g	2.ee
.	8B	.	8dd
.	8A	.	8cc
2r	1G	.	2b
2G	.	.	2g
=42	=42	=42	=42
2.A	2r	0e	2.cc
.	2.c	.	.
8G	.	.	8b
8F	.	.	8a
2E	.	.	1g
.	4B	.	.
2C	2e	.	.
=43	=43	=43	=43
2.F	2d	0f	1r
.	2.c	.	.
4E	.	.	.
1D	.	.	2r
.	4B	.	.
.	4c	.	2dd
.	4B	.	.
=44	=44	=44	=44
1C	2.c	0g	2.ee
.	4d	.	8dd
.	.	.	8cc
2r	1e	.	2b
2c	.	.	2cc
=45	=45	=45	=45
2.d	1r	0f	0a
8c	.	.	.
8B	.	.	.
2A	2r	.	.
2F	2f	.	.
=46	=46	=46	=46
2.A	2e	0c	1a
.	2c	.	.
8G	.	.	.
8F	.	.	.
2E	1e	.	2r
2C	.	.	2g
=47	=47	=47	=47
2.F	2.A	0c	2.a
8E	4B	.	8g
8D	.	.	8f
1C	4c	.	2e
.	4d	.	.
.	2e	.	2g
=48	=48	=48	=48
2G	2B	0r	2d
2D	1d	.	2f
1A	.	.	1e
.	2c#	.	.
=49	=49	=49	=49
0D	[0d	0f	2d
.	.	.	1dd
.	.	.	4cc
.	.	.	4b-
=50	=50	=50	=50
2r	1d]	0f	2a
1d	.	.	2b-
.	1r	.	[1a
4c	.	.	.
4B-	.	.	.
=51	=51	=51	=51
2A	2r	0f	2a]
1B-	1d	.	4d
.	.	.	4e
.	.	.	4f
.	.	.	4g
4A	4c	.	[2a
4G	4B-	.	.
=52	=52	=52	=52
2F	2A	0d	2a]
1G	1B-	.	2g
.	.	.	2r
4F	4A	.	[2dd
4E	4G	.	.
=53	=53	=53	=53
2D	1A	0f	2dd]
1F	.	.	4cc
.	.	.	4b-
.	2.A	.	2a
4E	.	.	[2cc
4D	4B	.	.
=54	=54	=54	=54
2.C	1c	0e	2cc]
.	.	.	4b
4D	.	.	4a
2.E	2r	.	2.g
.	[2g	.	.
4F	.	.	4a
=55	=55	=55	=55
1.G	2g]	0d	1.b-
.	4f	.	.
.	4e	.	.
.	2d	.	.
2D	[2f	.	2a
=56	=56	=56	=56
1A	2f]	0c	1a
.	4e	.	.
.	4d	.	.
1r	2e	.	[1g
.	[2c	.	.
=57	=57	=57	=57
1.G	2c]	0d	1g]
.	4B	.	.
.	4A	.	.
.	2B	.	1r
4F	[2d	.	.
4E	.	.	.
=58	=58	=58	=58
2D	2d]	0f	0r
1F	4c	.	.
.	4B	.	.
.	2A	.	.
4E	[2c	.	.
4D	.	.	.
=59	=59	=59	=59
2.C	2c]	0e	1r
.	4B	.	.
4D	4A	.	.
2.E	2.G	.	2r
.	.	.	[2gg
4F	4A	.	.
=60	=60	=60	=60
1.G	4B	0d	2gg]
.	4c	.	.
.	2d	.	4ff
.	.	.	4ee
.	2B	.	2dd
2D	[2d	.	[2ff
=61	=61	=61	=61
2F	4d]	[0d	4ff]
.	4c	.	4ee
1G	4B	.	4dd
.	4A	.	4cc
.	2G	.	2b
2F#	2A	.	[2a
=62	=62	=62	=62
0G	0B	1d_	4a]
.	.	.	4g
.	.	.	1g
.	.	1d_	.
.	.	.	4f#
.	.	.	4e
=63	=63	=63	=63
0D	0A	0d]	0f#
=64	=64	=64	=64
1D	0d	0r	0r
2G	.	.	.
[2G	.	.	.
=65	=65	=65	=65
2G]	0d	0r	0r
4F#	.	.	.
4E	.	.	.
1F#	.	.	.
=66	=66	=66	=66
2.G	0B	1d	0r
4F	.	.	.
1E	.	2g	.
.	.	[2g	.
=67	=67	=67	=67
0D	0d	2g]	1a
.	.	4f#	.
.	.	4e	.
.	.	1f#	2dd
.	.	.	[2dd
=68	=68	=68	=68
1r	0e	1g	2dd]
.	.	.	4cc#
.	.	.	4b
1A	.	1a	1cc#
=69	=69	=69	=69
2B	0d	2r	2.dd
2.G	.	2d	.
.	.	.	4cc
.	.	2g	1b
4A	.	.	.
4B	.	[2g	.
4c	.	.	.
=70	=70	=70	=70
1d	0d	2g]	1a
.	.	4f#	.
.	.	4e	.
1D	.	1f#	2r
.	.	.	[2dd
=71	=71	=71	=71
2G	0r	1g	4dd]
.	.	.	4cc
1G	.	.	1b
.	.	2r	.
4F#	.	[2a	4a
4E	.	.	4g
=72	=72	=72	=72
2F#	0d	2a]	2a
2G	.	1g	2b
1D	.	.	2a
.	.	4f#	[2dd
.	.	4e	.
=73	=73	=73	=73
0r	0d	2f#	4dd]
.	.	.	4cc
.	.	1g	2b
.	.	.	1a
.	.	2f#	.
=74	=74	=74	=74
1G	0B	2.g	1g
.	.	8f	.
.	.	8e	.
2G	.	2d	1r
2G	.	[2e	.
=75	=75	=75	=75
2.A	0c	4e]	0r
.	.	4d	.
.	.	4c	.
4G	.	4B	.
2F	.	4A	.
.	.	4B	.
2E	.	[2c	.
=76	=76	=76	=76
1D	0d	2c]	2r
.	.	4B	2dd
.	.	4A	.
1G	.	1B	2dd
.	.	.	2dd
=77	=77	=77	=77
1C	0c	1c	0ee
2r	.	1r	.
[2c	.	.	.
=78	=78	=78	=78
2c]	0G	2r	0dd
4B	.	2d	.
4A	.	.	.
2B	.	2d	.
[2d	.	2d	.
=79	=79	=79	=79
2d]	0G	1e	1r
1c	.	.	.
.	.	1d	2r
2B	.	.	[2dd
=80	=80	=80	=80
2.A	0r	1e	2dd]
.	.	.	2cc
4G	.	.	.
1F	.	2r	2a
.	.	[2a	[2cc
=81	=81	=81	=81
1C	0c	2a]	2cc]
.	.	2g	4b
.	.	.	4a
2r	.	2e	2g
2c	.	[2g	2e
=82	=82	=82	=82
2A	0c	4g]	1.a
.	.	4f	.
2F	.	1f	.
1c	.	.	.
.	.	4e	4g
.	.	4d	4f
=83	=83	=83	=83
0C	0c	1e	2.g
.	.	.	4f
.	.	2r	1e
.	.	[2g	.
=84	=84	=84	=84
0D	0A	2g]	2.d
.	.	2f	.
.	.	.	4e
.	.	2d	2f
.	.	[2f	2d
=85	=85	=85	=85
0C	0c	2f]	[0g
.	.	4e	.
.	.	4d	.
.	.	1e	.
=86	=86	=86	=86
0G	0B	2d	1g]
.	.	2.g	.
.	.	.	2r
.	.	4f	.
.	.	2d	[2dd
=87	=87	=87	=87
0r	0A	2f	2dd]
.	.	2e	2cc
.	.	1c	2a
.	.	.	[2cc
=88	=88	=88	=88
1r	0G	[0d	2cc]
.	.	.	4b
.	.	.	4a
2r	.	.	1b
[2G	.	.	.
=89	=89	=89	=89
2G]	0A	1d]	2a
2F	.	.	1dd
2D	.	1r	.
[2F	.	.	2cc
=90	=90	=90	=90
2F]	0c	2r	2a
4E	.	1g	2.cc
4D	.	.	.
2E	.	.	.
.	.	.	4b
2F	.	2f	2a
=91	=91	=91	=91
0G	0B	2d	2.g
.	.	2e	.
.	.	.	4a
.	.	[1d	2b
.	.	.	[2g
=92	=92	=92	=92
0D	0A	0d]	2g]
.	.	.	4f#
.	.	.	4e
.	.	.	1f#
=93	=93	=93	=93
0G	0G	0d	0g
==	==	==	==
*-	*-	*-	*-
!!!CDT: 1525/^1526/-1594/2/2
!!!OCY: Italia
!!!AGN: Mass (Tenor)
!!!AST: renaissance, vocal
!!!ASW: Antiphon
!!!PWK: Masses, Book I
!!!RNB: Cadence finals: D,C
!!!YOR: Le Opere Complete, v. 1, p. 1
!!!YOO: Rome, Italy: Fratelli Scalera
!!!END: 1992//
!!!EED: John Miller
!!!YEC: Copyright 2000, John Miller
!!!YEN: United States of America
!!!YEM: Rights to all derivative electronic formats reserved.
!!!YEM: Refer to licensing agreement for further details.
!!!YEM: This file must be accompanied by the licensing agreement.
!!!YEM: A copy of the licensing agreement may be found at http://www.music-cog.ohio-state.edu/HumdrumDatabases/Palestrina/license.txt
!!!EMD: converted to Humdrum by Bret Aarden
